X:3416
T:Copenhagen Waltz. BF13.019
M:3/8
L:1/16
Q:40
S:James Lishman,Dancing Master,early 19thC.Cumbria,Browne Coll.
R:Waltz
O:England
A:Lakes
Z:vmp.Chris Partington.
K:C
e<g|f<g e<g d<g|c<e G2 c<e|d<f G2B<d|d<f G2 e<g|!
f<a e<g d<f|c<e G2 c<e|d<f G2B<d|c4:|!
|:c<e|d<f G2 B<d|c<e G2 c<e|d<f G2 B<d|c<e G2 e<g|!
f<a e<g d<f|c<e G2 c<e|d<f G2 B<d|c4:|!
|:g2|a2g2e2|c4g2|a2g2e2|d4g2|!
a2g2e2|(cBceg)e|(d^cdef)d|c4:|]
W:This version from Laurence Leadley MS |]


